X:21180 
T:SLIEVENAMON (hornpipe) 
B:DMI.0812
Z:Nordberg/Black
R:hornpipe
N:Dotted rhythm removed
%Q:1/4=150
M:C|
L:1/8 
K:G
B2|GDB,D G,DB,D|GBAG 2DF|GBdf gdBd|cBAG Fedc|
BGFG EDB,D|GABG EGDF|GBdg egdc|B2G2G2:|
Bc|dgg2 bgg2|dgbg agfg|agab [ac']bag|fgfe dgB^c|
dgg2 bgg2|d2 bg egdc|Bdgd AdcA|B2G2G2:|

%%%

